src/styles/icons/camera.svg

<svg width="24" height="24" fill="none" xmlns="http://www.w3.org/2000/svg"><path d="m14.12 4 1.83 2H20v12H4V6h4.05l1.83-2h4.24ZM15 2H9L7.17 4H4c-1.1 0-2 .9-2 2v12c0 1.1.9 2 2 2h16c1.1 0 2-.9 2-2V6c0-1.1-.9-2-2-2h-3.17L15 2Zm-3 7c1.65 0 3 1.35 3 3s-1.35 3-3 3-3-1.35-3-3 1.35-3 3-3Zm0-2c-2.76 0-5 2.24-5 5s2.24 5 5 5 5-2.24 5-5-2.24-5-5-5Z" fill="#000"/></svg>

<svg width="24" height="24" viewBox="0 0 24 24" fill="none" xmlns="http://www.w3.org/2000/svg">
<path d="M14.12 4L15.95 6H20V18H4V6H8.05L9.88 4H14.12ZM15 2H9L7.17 4H4C2.9 4 2 4.9 2 6V18C2 19.1 2.9 20 4 20H20C21.1 20 22 19.1 22 18V6C22 4.9 21.1 4 20 4H16.83L15 2ZM12 9C13.65 9 15 10.35 15 12C15 13.65 13.65 15 12 15C10.35 15 9 13.65 9 12C9 10.35 10.35 9 12 9ZM12 7C9.24 7 7 9.24 7 12C7 14.76 9.24 17 12 17C14.76 17 17 14.76 17 12C17 9.24 14.76 7 12 7Z" fill="black"/>
</svg>
